icons/1_Primary/Humble Bundle.svg

<svg xmlns="http://www.w3.org/2000/svg" viewBox="0 0 1024 1024">
   <circle cx="512" cy="512" r="512" style="fill:#cc2929"/>
   <path d="M344.3 767.9c2.6-9.9 4.9-19.2 7.3-28.5 14.8-57.9 28.2-116 38.8-174.9 5.2-28.8 9.5-57.8 13.5-86.9 3-21.9 4.6-44 4.2-66.2-.2-11.9-.7-23.8-4.1-35.3-1.5-5.1-3.7-10.1-6.4-14.6-3.5-5.8-9.2-8.1-16-7.9-18.8.6-34.8 7.7-48.5 20.5-15.5 14.5-25.6 32.6-33.1 52.2-3.5 9.3-6.1 18.9-9 28.4-.4 1.4-.6 2.6-2.5 2.6-10.5-.1-21.1-.1-31.7-.1-.3 0-.5-.2-.8-.2 0-4.1-.4-8.2.1-12.2 7.4-60.9 33.5-112.4 78.2-154.1 16.7-15.7 36.6-26.5 59.2-31.4 33.2-7.2 59.6 5.5 75.4 35.8 8 15.4 12.3 31.9 15.1 48.9 4.5 27.5 4.7 55.2 3.7 82.9-.3 9-.9 17.9-1.3 26.9v3.8c1.2.1 2.2.2 3.3.2 19.3 0 38.6 0 58 .1 2.6 0 3.4-1 3.8-3.4 12.3-66.4 29.2-131.6 51-195.5.5-1.6 1.1-2.6 3.1-2.6 23.9.1 47.8.1 71.7.1.4 0 .7.1 1.5.2l-4.1 16.1c-16.1 62.6-30.6 125.6-42.4 189.1-6.1 33-11.4 66.1-14.7 99.5-1.8 18.7-3 37.4-2.4 56.1.3 11.3 1.2 22.7 4.7 33.5 1.4 4.3 3.4 8.5 5.8 12.4 3.6 5.5 9.1 7.8 15.8 7.6 24.7-.7 43.6-12.6 58.6-31.4 15.1-18.8 24.2-40.5 30.6-63.6.6-2.1 1.3-4.3 1.6-6.5.3-1.7 1.2-2.2 2.8-2.2 10 0 19.9.1 29.9 0 2.2 0 2.6.9 2.5 2.8-.3 17.2-3.3 33.8-8.3 50.1-12.6 41.1-33.2 77.5-63.8 107.9-17.3 17.3-37.6 30-61.4 36.4-14.4 3.9-28.9 4.5-43.2-.6-16.2-5.8-27.2-17.4-35.4-32.1-8.6-15.5-13.1-32.3-16-49.5-5.1-30-5.1-60.2-3.7-90.5.9-19 2.7-37.9 4.1-56.9.3-4.1.3-4.1-3.7-4.1h-54.7c-2.2 0-3.3.5-3.6 2.9-5.8 38.7-13.6 77-22.9 114.9-9.7 39.3-20.8 78.2-33.9 116.5-.9 2.7-2.2 3.4-5 3.4-22.7-.1-45.4-.1-68.2-.1l-3.5-.5z" style="fill:#fff"/>
</svg>

<svg width="1024" height="1024" viewBox="0 0 1024 1024" fill="none" xmlns="http://www.w3.org/2000/svg">
<g clip-path="url(#clip0_2_2454)">
<path d="M512 1024C794.77 1024 1024 794.77 1024 512C1024 229.23 794.77 0 512 0C229.23 0 0 229.23 0 512C0 794.77 229.23 1024 512 1024Z" fill="#FF837D"/>
<path d="M344.3 767.9C346.9 758 349.2 748.7 351.6 739.4C366.4 681.5 379.8 623.4 390.4 564.5C395.6 535.7 399.9 506.7 403.9 477.6C406.9 455.7 408.5 433.6 408.1 411.4C407.9 399.5 407.4 387.6 404 376.1C402.5 371 400.3 366 397.6 361.5C394.1 355.7 388.4 353.4 381.6 353.6C362.8 354.2 346.8 361.3 333.1 374.1C317.6 388.6 307.5 406.7 300 426.3C296.5 435.6 293.9 445.2 291 454.7C290.6 456.1 290.4 457.3 288.5 457.3C278 457.2 267.4 457.2 256.8 457.2C256.5 457.2 256.3 457 256 457C256 452.9 255.6 448.8 256.1 444.8C263.5 383.9 289.6 332.4 334.3 290.7C351 275 370.9 264.2 393.5 259.3C426.7 252.1 453.1 264.8 468.9 295.1C476.9 310.5 481.2 327 484 344C488.5 371.5 488.7 399.2 487.7 426.9C487.4 435.9 486.8 444.8 486.4 453.8V457.6C487.6 457.7 488.6 457.8 489.7 457.8C509 457.8 528.3 457.8 547.7 457.9C550.3 457.9 551.1 456.9 551.5 454.5C563.8 388.1 580.7 322.9 602.5 259C603 257.4 603.6 256.4 605.6 256.4C629.5 256.5 653.4 256.5 677.3 256.5C677.7 256.5 678 256.6 678.8 256.7L674.7 272.8C658.6 335.4 644.1 398.4 632.3 461.9C626.2 494.9 620.9 528 617.6 561.4C615.8 580.1 614.6 598.8 615.2 617.5C615.5 628.8 616.4 640.2 619.9 651C621.3 655.3 623.3 659.5 625.7 663.4C629.3 668.9 634.8 671.2 641.5 671C666.2 670.3 685.1 658.4 700.1 639.6C715.2 620.8 724.3 599.1 730.7 576C731.3 573.9 732 571.7 732.3 569.5C732.6 567.8 733.5 567.3 735.1 567.3C745.1 567.3 755 567.4 765 567.3C767.2 567.3 767.6 568.2 767.5 570.1C767.2 587.3 764.2 603.9 759.2 620.2C746.6 661.3 726 697.7 695.4 728.1C678.1 745.4 657.8 758.1 634 764.5C619.6 768.4 605.1 769 590.8 763.9C574.6 758.1 563.6 746.5 555.4 731.8C546.8 716.3 542.3 699.5 539.4 682.3C534.3 652.3 534.3 622.1 535.7 591.8C536.6 572.8 538.4 553.9 539.8 534.9C540.1 530.8 540.1 530.8 536.1 530.8H481.4C479.2 530.8 478.1 531.3 477.8 533.7C472 572.4 464.2 610.7 454.9 648.6C445.2 687.9 434.1 726.8 421 765.1C420.1 767.8 418.8 768.5 416 768.5C393.3 768.4 370.6 768.4 347.8 768.4L344.3 767.9Z" fill="white"/>
</g>
<defs>
<clipPath id="clip0_2_2454">
<rect width="1024" height="1024" fill="white"/>
</clipPath>
</defs>
</svg>
